icons/tab.svg

<svg width="20" height="16" xmlns="http://www.w3.org/2000/svg"><path d="M18,4 L18,5 L11,5 L11,2 L4,2 C2.8954305,2 2,2.8954305 2,4 L2,12 C2,13.1045695 2.8954305,14 4,14 L16,14 C17.1045695,14 18,13.1045695 18,12 L18,4 Z M4,0 L16,0 C18.209139,0 20,1.790861 20,4 L20,12 C20,14.209139 18.209139,16 16,16 L4,16 C1.790861,16 0,14.209139 0,12 L0,4 C0,1.790861 1.790861,0 4,0 Z"/></svg>

<svg width="20" height="16" xmlns="http://www.w3.org/2000/svg" fill="currentColor"><path d="M18 4v1h-7V2H4a2 2 0 0 0-2 2v8a2 2 0 0 0 2 2h12a2 2 0 0 0 2-2V4ZM4 0h12a4 4 0 0 1 4 4v8a4 4 0 0 1-4 4H4a4 4 0 0 1-4-4V4a4 4 0 0 1 4-4Z"/></svg>
